flaticon/hand-gestures/gestures-1.svg

<svg xmlns="http://www.w3.org/2000/svg" width="32" height="32" viewBox="0 0 24 24">
    <path d="M 20.207031 9.417969 C 20.207031 8.449219 19.515625 7.691406 18.617188 7.585938 C 18.613281 7.585938 18.609375 7.585938 18.605469 7.585938 C 18.578125 7.582031 18.554688 7.578125 18.53125 7.578125 C 18.519531 7.578125 18.511719 7.578125 18.503906 7.578125 C 18.472656 7.574219 18.4375 7.574219 18.40625 7.574219 C 18.011719 7.574219 17.65625 7.664062 17.371094 7.832031 C 17.203125 6.996094 16.445312 6.371094 15.5625 6.371094 C 15.207031 6.371094 14.878906 6.480469 14.597656 6.664062 L 14.597656 1.804688 C 14.597656 0.761719 13.796875 -0.0390625 12.796875 0 C 12.316406 0 11.875 0.160156 11.515625 0.523438 C 11.195312 0.84375 10.992188 1.324219 10.992188 1.804688 L 10.992188 1.882812 C 10.671875 1.683594 10.351562 1.5625 9.992188 1.5625 C 9.03125 1.5625 8.1875 2.40625 8.148438 3.40625 L 8.148438 10.457031 C 7.828125 9.738281 7.347656 9.015625 6.867188 8.535156 C 6.226562 7.894531 4.945312 7.855469 4.222656 8.453125 C 4.023438 8.65625 3.339844 9.375 4.261719 10.660156 C 5.105469 11.859375 5.785156 14.503906 5.785156 16.027344 C 5.785156 19.191406 7.867188 20.632812 8.589844 21.035156 L 8.589844 22.4375 C 8.589844 23.320312 9.3125 24 10.191406 24 L 17.402344 24 C 18.285156 24 19.007812 23.277344 18.964844 22.398438 L 18.964844 20.984375 C 18.976562 20.964844 18.984375 20.945312 18.988281 20.925781 C 20.167969 19.351562 20.167969 19.09375 20.167969 16.105469 L 20.167969 12.355469 C 20.195312 12.238281 20.207031 12.113281 20.207031 11.980469 Z M 17.402344 11.78125 L 17.402344 9.175781 C 17.402344 8.574219 17.964844 8.375 18.40625 8.375 C 18.425781 8.375 18.445312 8.375 18.460938 8.375 C 18.46875 8.378906 18.480469 8.378906 18.488281 8.378906 C 18.496094 8.378906 18.507812 8.378906 18.515625 8.382812 C 18.527344 8.382812 18.535156 8.382812 18.546875 8.386719 C 18.554688 8.386719 18.5625 8.386719 18.570312 8.390625 C 18.582031 8.390625 18.589844 8.394531 18.597656 8.394531 C 18.609375 8.398438 18.621094 8.398438 18.632812 8.402344 C 18.636719 8.402344 18.640625 8.40625 18.644531 8.40625 C 19.007812 8.5 19.222656 8.800781 19.328125 9.015625 C 19.378906 9.140625 19.40625 9.277344 19.40625 9.417969 L 19.40625 11.980469 C 19.40625 12.582031 18.886719 12.78125 18.40625 12.78125 C 17.964844 12.78125 17.402344 12.582031 17.402344 11.980469 Z M 14.640625 8.175781 C 14.640625 7.613281 15.078125 7.171875 15.601562 7.171875 C 16.121094 7.171875 16.601562 7.613281 16.640625 8.175781 L 16.640625 8.808594 C 16.621094 8.90625 16.609375 9.007812 16.605469 9.113281 C 16.601562 9.121094 16.601562 9.128906 16.601562 9.136719 L 16.601562 11.742188 C 16.601562 11.835938 16.523438 12.457031 16.027344 12.691406 C 15.914062 12.742188 15.792969 12.773438 15.664062 12.78125 C 15.644531 12.78125 15.621094 12.78125 15.601562 12.78125 C 15.078125 12.78125 14.640625 12.339844 14.640625 11.78125 Z M 18.472656 20.394531 L 17.804688 20.394531 C 17.5625 20.394531 17.402344 20.554688 17.402344 20.792969 C 17.402344 21.035156 17.5625 21.195312 17.804688 21.195312 L 18.234375 21.195312 L 18.203125 22.398438 C 18.203125 22.839844 17.84375 23.199219 17.402344 23.199219 L 10.191406 23.199219 C 9.75 23.199219 9.390625 22.878906 9.390625 22.4375 L 9.390625 21.195312 L 10.191406 21.195312 C 10.433594 21.195312 10.59375 21.035156 10.59375 20.792969 C 10.59375 20.554688 10.433594 20.394531 10.191406 20.394531 L 9.058594 20.394531 C 8.597656 20.167969 6.585938 18.972656 6.585938 16.027344 C 6.585938 14.542969 5.984375 11.621094 4.945312 10.179688 C 4.664062 9.816406 4.421875 9.335938 4.785156 9.054688 C 4.945312 8.894531 5.222656 8.816406 5.503906 8.816406 C 5.824219 8.816406 6.144531 8.894531 6.304688 9.097656 C 7.308594 10.058594 8.1875 12.179688 8.1875 13.183594 C 8.1875 13.257812 8.203125 13.328125 8.234375 13.382812 C 8.296875 14.390625 8.953125 15.1875 9.792969 15.1875 C 10.03125 15.1875 10.191406 15.027344 10.191406 14.785156 C 10.191406 14.542969 10.03125 14.382812 9.792969 14.382812 C 9.390625 14.382812 9.03125 13.863281 9.03125 13.222656 C 9.03125 13.152344 9.015625 13.089844 8.988281 13.035156 L 8.988281 3.40625 C 8.988281 2.847656 9.472656 2.363281 9.992188 2.363281 C 10.550781 2.363281 10.992188 2.847656 10.992188 3.40625 L 10.992188 10.378906 C 10.992188 10.578125 10.953125 10.738281 10.914062 10.777344 C 10.710938 10.820312 10.59375 10.980469 10.59375 11.179688 C 10.59375 11.417969 10.753906 11.578125 10.992188 11.578125 C 11.144531 11.578125 11.28125 11.527344 11.394531 11.4375 C 11.507812 11.527344 11.644531 11.578125 11.792969 11.578125 C 12.035156 11.578125 12.195312 11.417969 12.195312 11.179688 C 12.195312 10.980469 12.035156 10.820312 11.875 10.777344 C 11.835938 10.738281 11.792969 10.578125 11.792969 10.378906 L 11.792969 1.804688 C 11.792969 1.523438 11.914062 1.285156 12.074219 1.082031 C 12.273438 0.882812 12.515625 0.761719 12.796875 0.761719 C 13.355469 0.761719 13.796875 1.242188 13.796875 1.804688 L 13.796875 11.78125 C 13.796875 12.78125 14.597656 13.582031 15.5625 13.582031 C 15.601562 13.582031 15.601562 13.582031 15.601562 13.582031 C 15.632812 13.582031 15.667969 13.582031 15.699219 13.582031 C 16.15625 13.558594 16.503906 13.394531 16.761719 13.164062 C 16.828125 13.109375 16.890625 13.046875 16.945312 12.984375 C 17.257812 13.363281 17.769531 13.582031 18.40625 13.582031 C 18.789062 13.582031 19.128906 13.5 19.40625 13.355469 L 19.40625 16.105469 C 19.40625 18.96875 19.40625 19.105469 18.472656 20.394531 Z M 18.472656 20.394531"/>
</svg>

<svg xmlns="http://www.w3.org/2000/svg" width="32" height="32" viewBox="0 0 24 24">
    <path d="M20.207 9.418c0-.969-.691-1.727-1.59-1.832h-.012c-.027-.004-.05-.008-.074-.008h-.027c-.031-.004-.067-.004-.098-.004-.394 0-.75.09-1.035.258a1.845 1.845 0 0 0-1.808-1.46c-.356 0-.684.108-.965.292v-4.86c0-1.042-.801-1.843-1.801-1.804-.48 0-.922.16-1.281.523-.32.32-.524.801-.524 1.282v.078c-.32-.2-.64-.32-1-.32-.96 0-1.805.843-1.844 1.843v7.051c-.32-.719-.8-1.441-1.28-1.922-.641-.64-1.923-.68-2.645-.082-.2.203-.883.922.039 2.207.843 1.2 1.523 3.844 1.523 5.367 0 3.164 2.082 4.606 2.805 5.008v1.402c0 .883.723 1.563 1.601 1.563h7.211c.883 0 1.606-.723 1.563-1.602v-1.414c.012-.02.02-.039.023-.058 1.18-1.574 1.18-1.832 1.18-4.82v-3.75c.027-.118.039-.243.039-.376zm-2.805 2.363V9.176c0-.602.563-.801 1.004-.801h.055c.008.004.02.004.027.004.008 0 .02 0 .028.004.011 0 .02 0 .03.004a.05.05 0 0 1 .024.004c.012 0 .02.004.028.004.011.003.023.003.035.007.004 0 .008.004.012.004.363.094.578.395.683.61.05.125.078.261.078.402v2.562c0 .602-.52.801-1 .801-.441 0-1.004-.199-1.004-.8zm-2.761-3.605c0-.563.437-1.004.96-1.004.52 0 1 .441 1.04 1.004v.633c-.02.097-.032.199-.036.304-.003.008-.003.016-.003.024v2.605c0 .094-.079.715-.575.95-.113.05-.234.081-.363.09h-.062c-.524 0-.961-.442-.961-1zm3.832 12.219h-.668c-.242 0-.403.16-.403.398 0 .242.16.402.403.402h.43l-.032 1.203c0 .442-.36.801-.8.801H10.19c-.441 0-.8-.32-.8-.762v-1.242h.8c.243 0 .403-.16.403-.402 0-.238-.16-.398-.403-.398H9.06c-.461-.227-2.473-1.422-2.473-4.368 0-1.484-.602-4.406-1.64-5.847-.282-.364-.524-.844-.16-1.125.16-.16.437-.239.718-.239.32 0 .64.079.8.282 1.005.96 1.883 3.082 1.883 4.086 0 .074.016.144.047.199.063 1.008.72 1.805 1.559 1.805.238 0 .398-.16.398-.403 0-.242-.16-.402-.398-.402-.402 0-.762-.52-.762-1.16a.414.414 0 0 0-.043-.188V3.406c0-.558.485-1.043 1.004-1.043.559 0 1 .485 1 1.043v6.973c0 .2-.039.36-.078.398a.392.392 0 0 0-.32.403c0 .238.16.398.398.398.153 0 .29-.05.403-.14.113.09.25.14.398.14.242 0 .402-.16.402-.398 0-.2-.16-.36-.32-.403-.04-.039-.082-.199-.082-.398V1.805c0-.282.121-.52.281-.723.2-.2.442-.32.723-.32.558 0 1 .48 1 1.043v9.976c0 1 .8 1.801 1.765 1.801h.137a1.678 1.678 0 0 0 1.063-.418c.066-.055.129-.117.183-.18.313.38.825.598 1.461.598.383 0 .723-.082 1-.227v2.75c0 2.864 0 3-.933 4.29zm0 0"/>
</svg>
